X:1
T: Montreal Rendezvous
C:
R:Strathspey
Q: 128
K:Bb
M:4/4
L:1/16
|:F4|FB3 Bd3 c3B GB3|FB3 cB3 d8|FB3 Bd3 c3B GB3|GB3 d3B c8|
F3D FB3 d3c BG3|GB3 c3B d8|g3f ed3 d3c BG3|GF3 f3d B8|
FB3 GB3 FB3 GB3|GB3 c3B d8|FB3 GB3 d3c BG3|GB3 d3B c8|
FB3 GB3 F3D FB3|GB3 c3B d8|g3f ed3 d3c BG3|GF3 f3d B4:|
